Adwaita++/actions/22/tool-measure.svg

<svg height="22" viewBox="0 0 22 22" width="22" xmlns="http://www.w3.org/2000/svg">
  <path d="m5 1-4 4h4v1h-4l4 4v5h10v-14z" fill="#444" transform="translate(3 3)"/>
</svg>

<svg xmlns="http://www.w3.org/2000/svg" width="22" height="22" viewBox="0 0 22 22">
 <defs>
  <style id="current-color-scheme" type="text/css">
   .ColorScheme-Text { color:#444444; } .ColorScheme-Highlight { color:#4285f4; }
  </style>
 </defs>
 <path style="fill:currentColor" class="ColorScheme-Text" d="M 5 1 L 1 5 L 5 5 L 5 6 L 1 6 L 5 10 L 5 15 L 15 15 L 15 1 L 5 1 z" transform="translate(3 3)"/>
</svg>
